X:221
T: HOERT IHR DEN SCHWAEBISCHEN WIRBELTANZ
N: B0709
O: Europa, Mitteleuropa, Deutschland
R: Scherz - Lied, Tanz
M: 3/8
L: 1/16
K: C
 | G,3CC2 | C2DCB,A, | A,3G,G,2 |
C3CC2 | D2C2D2 | E4z2 |
F2D2D2 | CB,A,G,A,B, | C2E2G2 |
F2D2D2 | CB,A,G,A,B, | C4z2 |
F2D2D2 | CB,A,G,A,B, | C2E2G2 |
F2D2D2 | CB,A,G,A,B, | C4z2

@@@ Tune index: 2439
